images_sukapura_svg/cmd/lc_sendtoback.svg

<svg viewBox="0 0 24 24" xmlns="http://www.w3.org/2000/svg" xmlns:xlink="http://www.w3.org/1999/xlink"><linearGradient id="a" gradientTransform="translate(-12 28)" gradientUnits="userSpaceOnUse" x1="10" x2="10" y1="16" y2="2"><stop offset="0" stop-color="#f5f5f5"/><stop offset=".25" stop-color="#fdfdfd"/><stop offset="1" stop-color="#fff"/></linearGradient><linearGradient id="b" gradientUnits="userSpaceOnUse" x1="20" x2="20" xlink:href="#a" y1="9" y2="3"/><linearGradient id="c" gradientUnits="userSpaceOnUse" x1="13.949219" x2="13.949219" xlink:href="#a" y1="9" y2="3"/><path d="m6.2539062 6c-.6948473 0-1.2539062.5590589-1.2539062 1.2539062v9.4921878c0 .694847.5590589 1.253906 1.2539062 1.253906h11.4921878c.694847 0 1.253906-.559059 1.253906-1.253906v-9.4921878c0-.6948473-.559059-1.2539062-1.253906-1.2539062zm-.2539062 1h12v10h-12z" fill="#e4b500"/><path d="m6 7h12v10h-12z" fill="#fc0"/><g transform="translate(-9.949219 12)"><path d="m12.949219 2c-.5263 0-.949219.4229187-.949219.9492188v2.0507812 4.0507812c0 .5263.422919.9492188.949219.9492188h7.050781 1.050781c.5263 0 .949219-.4229188.949219-.9492188v-2.0507812-4.0507812c0-.5263-.422919-.9492188-.949219-.9492188h-7.050781zm.050781 1h1 7v4 2h-1-7v-4z" fill="#98989d"/><path d="m13 3v2 4h7 1v-2-4h-7z" fill="url(#c)"/></g><path d="m12.949219 2c-.5263 0-.949219.4229187-.949219.9492188v2.0507812 4.0507812c0 .5263.422919.9492188.949219.9492188h7.050781 1.050781c.5263 0 .949219-.4229188.949219-.9492188v-2.0507812-4.0507812c0-.5263-.422919-.9492188-.949219-.9492188h-7.050781zm.050781 1h1 7v4 2h-1-7v-4z" fill="#98989d"/><path d="m13 3v2 4h7 1v-2-4h-7z" fill="url(#b)"/></svg>

<?xml version="1.0" encoding="UTF-8" standalone="no"?>
<svg
   xmlns:dc="http://purl.org/dc/elements/1.1/"
   xmlns:cc="http://creativecommons.org/ns#"
   xmlns:rdf="http://www.w3.org/1999/02/22-rdf-syntax-ns#"
   xmlns:svg="http://www.w3.org/2000/svg"
   xmlns="http://www.w3.org/2000/svg"
   xmlns:xlink="http://www.w3.org/1999/xlink"
   xmlns:sodipodi="http://sodipodi.sourceforge.net/DTD/sodipodi-0.dtd"
   xmlns:inkscape="http://www.inkscape.org/namespaces/inkscape"
   viewBox="0 0 24 24"
   version="1.1"
   id="svg16"
   sodipodi:docname="lc_sendtoback.svg"
   inkscape:export-filename="/home/rizmut/Dokumen/Rizmut/Github/libreoffice-style-sukapura/images_sukapura/cmd/lc_sendtoback.png"
   inkscape:export-xdpi="96"
   inkscape:export-ydpi="96"
   inkscape:version="0.92.3 (unknown)">
  <metadata
     id="metadata22">
    <rdf:RDF>
      <cc:Work
         rdf:about="">
        <dc:format>image/svg+xml</dc:format>
        <dc:type
           rdf:resource="http://purl.org/dc/dcmitype/StillImage" />
        <dc:title></dc:title>
      </cc:Work>
    </rdf:RDF>
  </metadata>
  <defs
     id="defs20">
    <linearGradient
       gradientTransform="translate(-12,28)"
       y2="2"
       y1="16"
       x2="10"
       x1="10"
       gradientUnits="userSpaceOnUse"
       id="linearGradient1639">
      <stop
         id="stop1633"
         stop-color="#f5f5f5"
         offset="0" />
      <stop
         id="stop1637"
         stop-color="#fff"
         offset="1" />
    </linearGradient>
    <linearGradient
       gradientTransform="translate(75,-7)"
       id="a-367"
       gradientUnits="userSpaceOnUse"
       x1="14"
       x2="13.79661"
       y1="22"
       y2="2.1355929">
      <stop
         offset="0"
         stop-color="#0040dd"
         id="stop2206" />
      <stop
         offset="1"
         stop-color="#0a84ff"
         id="stop2208" />
    </linearGradient>
    <clipPath
       clipPathUnits="userSpaceOnUse"
       id="clipPath962">
      <path
         id="path964"
         d="m 4,11 h 8 v 3 H 4 Z"
         style="fill:#000000;fill-opacity:1"
         inkscape:connector-curvature="0" />
    </clipPath>
    <linearGradient
       id="a"
       gradientUnits="userSpaceOnUse"
       x1="10"
       x2="10"
       y1="16"
       y2="2"
       gradientTransform="translate(-12,28)">
      <stop
         offset="0"
         stop-color="#f5f5f5"
         id="stop1025" />
      <stop
         offset="0.25"
         stop-color="#fdfdfd"
         id="stop1027" />
      <stop
         offset="1"
         stop-color="#fff"
         id="stop1029" />
    </linearGradient>
    <linearGradient
       inkscape:collect="always"
       xlink:href="#a"
       id="linearGradient2374"
       x1="20"
       y1="9"
       x2="20"
       y2="3"
       gradientUnits="userSpaceOnUse" />
    <linearGradient
       inkscape:collect="always"
       xlink:href="#a"
       id="linearGradient2386"
       gradientUnits="userSpaceOnUse"
       x1="13.949219"
       y1="9"
       x2="13.949219"
       y2="3" />
  </defs>
  <sodipodi:namedview
     pagecolor="#ffffff"
     bordercolor="#666666"
     borderopacity="1"
     objecttolerance="10"
     gridtolerance="10"
     guidetolerance="10"
     inkscape:pageopacity="0"
     inkscape:pageshadow="2"
     inkscape:window-width="1366"
     inkscape:window-height="706"
     id="namedview18"
     showgrid="true"
     inkscape:zoom="11.313708"
     inkscape:cx="15.778779"
     inkscape:cy="6.930248"
     inkscape:window-x="0"
     inkscape:window-y="0"
     inkscape:window-maximized="1"
     inkscape:current-layer="g2360">
    <inkscape:grid
       type="xygrid"
       id="grid829"
       spacingx="0.5"
       spacingy="0.5"
       empspacing="2" />
  </sodipodi:namedview>
  <g
     id="g2360">
    <g
       id="g2433">
      <path
         id="rect10"
         d="M 6.2539062 6 C 5.5590589 6 5 6.5590589 5 7.2539062 L 5 16.746094 C 5 17.440941 5.5590589 18 6.2539062 18 L 17.746094 18 C 18.440941 18 19 17.440941 19 16.746094 L 19 7.2539062 C 19 6.5590589 18.440941 6 17.746094 6 L 6.2539062 6 z M 6 7 L 18 7 L 18 17 L 6 17 L 6 7 z "
         style="fill:#e4b500;fill-opacity:1" />
      <rect
         ry="0"
         y="7"
         x="6"
         height="10"
         width="12"
         id="rect2388"
         style="fill:#ffcc00;fill-opacity:1;stroke:none;stroke-opacity:1" />
    </g>
    <g
       id="g2384"
       transform="translate(-9.949219,12)">
      <path
         style="fill:#98989d;fill-opacity:1"
         d="M 12.949219,2 C 12.422919,2 12,2.4229187 12,2.9492188 V 5 9.0507812 C 12,9.5770812 12.422919,10 12.949219,10 H 20 21.050781 C 21.577081,10 22,9.5770812 22,9.0507812 V 7 2.9492188 C 22,2.4229188 21.577081,2 21.050781,2 H 14 Z M 13,3 h 1 7 V 7 9 H 20 13 V 5 Z"
         id="path2380"
         inkscape:connector-curvature="0" />
      <path
         style="fill:url(#linearGradient2386);fill-opacity:1"
         d="m 13,3 v 2 4 h 7 1 V 7 3 h -7 z"
         id="path2382"
         inkscape:connector-curvature="0"
         sodipodi:nodetypes="ccccccccc" />
    </g>
    <g
       id="g2378">
      <path
         id="path6"
         d="M 12.949219 2 C 12.422919 2 12 2.4229187 12 2.9492188 L 12 5 L 12 9.0507812 C 12 9.5770812 12.422919 10 12.949219 10 L 20 10 L 21.050781 10 C 21.577081 10 22 9.5770812 22 9.0507812 L 22 7 L 22 2.9492188 C 22 2.4229188 21.577081 2 21.050781 2 L 14 2 L 12.949219 2 z M 13 3 L 14 3 L 21 3 L 21 7 L 21 9 L 20 9 L 13 9 L 13 5 L 13 3 z "
         style="fill:#98989d;fill-opacity:1" />
      <path
         sodipodi:nodetypes="ccccccccc"
         inkscape:connector-curvature="0"
         id="path8"
         d="m 13,3 v 2 4 h 7 1 V 7 3 h -7 z"
         style="fill:url(#linearGradient2374);fill-opacity:1" />
    </g>
  </g>
</svg>
